X: 6
M:9/8
L:1/8
K:G
|:G2 c BGd BGd|G2 c BGd cBA|G2 c BGd BGd|ecA ABG FED:|
|:B/2c/2BA GEE GEE|B/2c/2BA GEE FED|B/2c/2BA GEE GEE|FGA ABG FED:|
|:G2 G dBG BdB|G2 G dBG ecA|GBd g3/2a/2g/2f/2 gdB|ecA ABG FED:|
|:BGE cGE dGE|cGE BGE AFD|BGE cGE dGE|d2 B ABG FED:||

